X: 26196
T: McNallys Of Frances Hill, The
R: jig
M: 6/8
K: Dmajor
g|:fdA GdF-|F{G}FE FAd|B2G- GBd|c/B/AB cea|
[1 fdA GdF-|FAd fga|abd gfe-|edc d2g:|
[2 fdf ga{e}f-|fde fga|abd efe-|e3 e=fe||
[K: Fmaj]
dBd fed|cAc cde|fga agf|efc eAc|
dBd fed|cAc dcA|GAA GAG-|GAA GAc|
BAB def|efc eAc|BAB def|efg {f}gfe|
dBd fed|cAc cdf|ece efg|gab ~a2g||

